X:1
T:Stella By Starlight
T:Stella by Starlight
T:Victor Young/Ned Washington
C:Victor Young
Z:All Rights Reserved
L:1/4
M:4/4
K:Bb
V:1 treble 
%%MIDI program 40
%%MIDI control 7 100
%%MIDI control 10 64
V:1
 B |"Em7b5" A4- |"A7b9" A G A B |"Cm7" F4- |"F7" F3 F |"Fm7" G4- |"Bb7" G F F G |"Ebmaj7" B,4- | %8
w: The|Song|* a rob- in|sings|* through|years|* of end- less|springs|
"Ab7" B,3 C |"Bbmaj7" E D C B, |"Em7b5""A7b9" D3 =E |"Dm7" G3/2 F/ F2- |"Bbm7""Eb7" F3 G | %13
w: * The|mur- mur of a|brook at|ev- en tide|* That|
"Fmaj7" B A G F |"Em7b5" G2"A7" A B |"Am7b5" d3/2 c/ c2- |"D7b9" c2 d2 |"G+7" e4- | e e e d | %19
w: rip- ples by a|nook where two|lov- ers hide|* A|great|* sym- phon- ic|
"Cm7" f4- | f e (3d c B |"Ab7" d2 d2- | d c B A |"Bbmaj7" c4- | c3 B |"Em7b5" A4- |"A7b9" A G A B | %27
w: theme|* that's Stel- la by|Star light|* and not a|dream|* My|heart|* and I a-|
"Dm7b5" F4- |"G7b9" F F F E |"Cm7b5" _G4- |"F7b9" G _G G F |"Bbmaj7" F4- | F4 |] %33
w: gree|* she's ev- 'ry-|thing|* on earth to|me.||

